widget/bluetooth/icons/bluetooth-scanning.svg

<svg xmlns="http://www.w3.org/2000/svg" width="240" height="240">
    <path d="m142.4 120.1 23.2 23.2c2.8-7.25 4.4-15.1 4.4-23.3 0-8.15-1.55-15.95-4.3-23.15zm52.9-52.95L182.65 79.8c6.25 12.05 9.85 25.7 9.85 40.25s-3.6 28.15-9.85 40.25l12 12c9.65-15.5 15.35-33.65 15.35-53.15 0-19.1-5.45-36.85-14.7-52zm-38.25 9.9L100 20H90v75.85L44.15 50 30 64.15 85.85 120 30 175.85 44.15 190 90 144.15V220h10l57.05-57.05-42.9-42.95ZM110 58.3l18.8 18.8L110 95.85Zm18.8 104.65L110 181.7v-37.6z" style="fill:#fff;fill-opacity:1;stroke-width:5"/>
</svg>

<?xml version="1.0" encoding="UTF-8" standalone="no"?>
<svg
   xmlns:dc="http://purl.org/dc/elements/1.1/"
   xmlns:cc="http://creativecommons.org/ns#"
   xmlns:rdf="http://www.w3.org/1999/02/22-rdf-syntax-ns#"
   xmlns:svg="http://www.w3.org/2000/svg"
   xmlns="http://www.w3.org/2000/svg"
   xmlns:sodipodi="http://sodipodi.sourceforge.net/DTD/sodipodi-0.dtd"
   xmlns:inkscape="http://www.inkscape.org/namespaces/inkscape"
   width="240"
   height="240"
   viewBox="0 0 240 240"
   version="1.1"
   id="svg4"
   sodipodi:docname="bluetooth-scanning.svg"
   inkscape:version="0.92.4 5da689c313, 2019-01-14">
  <metadata
     id="metadata10">
    <rdf:RDF>
      <cc:Work
         rdf:about="">
        <dc:format>image/svg+xml</dc:format>
        <dc:type
           rdf:resource="http://purl.org/dc/dcmitype/StillImage" />
        <dc:title></dc:title>
      </cc:Work>
    </rdf:RDF>
  </metadata>
  <defs
     id="defs8" />
  <sodipodi:namedview
     pagecolor="#ffffff"
     bordercolor="#666666"
     borderopacity="1"
     objecttolerance="10"
     gridtolerance="10"
     guidetolerance="10"
     inkscape:pageopacity="0"
     inkscape:pageshadow="2"
     inkscape:window-width="1321"
     inkscape:window-height="740"
     id="namedview6"
     showgrid="false"
     inkscape:pagecheckerboard="true"
     inkscape:zoom="0.43457604"
     inkscape:cx="-749.4527"
     inkscape:cy="-132.18179"
     inkscape:window-x="45"
     inkscape:window-y="28"
     inkscape:window-maximized="0"
     inkscape:current-layer="svg4" />
  <path
     d="m 142.4,120.1 23.2,23.2 c 2.8,-7.25 4.4,-15.1 4.4,-23.3 0,-8.15 -1.55,-15.95 -4.3,-23.15 z M 195.3,67.15 182.65,79.8 c 6.25,12.05 9.85,25.7 9.85,40.25 0,14.55 -3.6,28.15 -9.85,40.25 l 12,12 C 204.3,156.8 210,138.65 210,119.15 c 0,-19.1 -5.45,-36.85 -14.7,-52 z M 157.05,77.05 100,20 H 90 V 95.85 L 44.15,50 30,64.15 85.85,120 30,175.85 44.15,190 90,144.15 V 220 h 10 L 157.05,162.95 114.15,120 Z M 110,58.3 128.8,77.1 110,95.85 Z M 128.8,162.95 110,181.7 v -37.6 z"
     id="path2"
     inkscape:connector-curvature="0"
     style="fill:#ffffff;fill-opacity:1;stroke-width:5" />
</svg>
